;FLAVOR:Marlin
;TIME:9017
;Filament used: 6.17246m
;Layer height: 0.2
;MINX:71.5
;MINY:65
;MINZ:0.2
;MAXX:163.5
;MAXY:169.419
;MAXZ:20
;Generated with Cura_SteamEngine 4.6.1
M140 S60
M105
M190 S60
M104 S200
M105
M109 S200
M82 ;absolute extrusion mode
; Ender 3 Custom Start G-code
G92 E0 ; Reset Extruder
G28 ; Home all axes
G1 Z2.0 F3000 ; Move Z Axis up little to prevent scratching of Heat Bed
G1 X0.1 Y20 Z0.3 F5000.0 ; Move to start position
G1 X0.1 Y200.0 Z0.3 F1500.0 E15 ; Draw the first line
G1 X0.4 Y200.0 Z0.3 F5000.0 ; Move to side a little
G1 X0.4 Y20 Z0.3 F1500.0 E30 ; Draw the second line
G92 E0 ; Reset Extruder
G1 Z2.0 F3000 ; Move Z Axis up little to prevent scratching of Heat Bed
G1 X5 Y20 Z0.3 F5000.0 ; Move over to prevent blob squish
G92 E0
G92 E0
G1 F1500 E-6.5
;LAYER_COUNT:100
;LAYER:0
M107
G0 F6000 X87.637 Y65.811 Z0.2
;TYPE:SKIRT
G1 F1500 E0
G1 F1200 X88.539 Y65.864 E0.03005
G1 X89.432 Y65.996 E0.06008
G1 X90.442 Y66.246 E0.09468
G1 X91.154 Y66.461 E0.11942
G1 X93.646 Y67.186 E0.20574
G1 X96.144 Y67.836 E0.29159
G1 X98.611 Y68.405 E0.3758
G1 X101.076 Y68.898 E0.45941
G1 X103.57 Y69.325 E0.54357
G1 X106.097 Y69.685 E0.62846
G1 X108.629 Y69.973 E0.71322
G1 X111.136 Y70.186 E0.7969
G1 X113.697 Y70.331 E0.88222
G1 X116.231 Y70.403 E0.96654
G1 X118.763 Y70.403 E1.05075
G1 X121.296 Y70.331 E1.13503
G1 X123.836 Y70.187 E1.21965
G1 X126.402 Y69.97 E1.3053
G1 X128.869 Y69.689 E1.38788
G1 X131.424 Y69.326 E1.47371
G1 X133.909 Y68.899 E1.55758
G1 X136.406 Y68.399 E1.64228
G1 X138.854 Y67.837 E1.72582
G1 X141.346 Y67.188 E1.81146
G1 X143.817 Y66.47 E1.89705
G1 X144.615 Y66.227 E1.92479
G1 X145.491 Y66.01 E1.95481
G1 X146.384 Y65.871 E1.98487
G1 X147.191 Y65.815 E2.01178
G1 X147.83 Y65.8 E2.03303
G1 X151.925 Y65.801 E2.16923
G1 X152.623 Y65.81 E2.19245
G1 X153.524 Y65.861 E2.22247
G1 X154.418 Y65.993 E2.25252
G1 X155.296 Y66.202 E2.28254
G1 X156.153 Y66.489 E2.3126
G1 X156.98 Y66.85 E2.34262
G1 X157.773 Y67.283 E2.37267
G1 X158.524 Y67.784 E2.40269
G1 X159.228 Y68.35 E2.43274
G1 X159.879 Y68.976 E2.46278
G1 X160.472 Y69.657 E2.49281
G1 X161.002 Y70.388 E2.52284
G1 X161.466 Y71.163 E2.55288
G1 X161.86 Y71.976 E2.58293
G1 X162.18 Y72.82 E2.61295
G1 X162.424 Y73.69 E2.64301
G1 X162.59 Y74.578 E2.67305
G1 X162.687 Y75.723 E2.71127
G1 X162.7 Y76.33 E2.73147
G1 X162.7 Y157.683 E5.43728
G1 X162.69 Y158.536 E5.46565
G1 X162.639 Y159.438 E5.4957
G1 X162.508 Y160.332 E5.52575
G1 X162.299 Y161.21 E5.55577
G1 X162.013 Y162.067 E5.58582
G1 X161.652 Y162.895 E5.61586
G1 X161.22 Y163.687 E5.64587
G1 X160.719 Y164.439 E5.67592
G1 X160.153 Y165.143 E5.70597
G1 X159.528 Y165.794 E5.73598
G1 X158.847 Y166.388 E5.76604
G1 X158.116 Y166.919 E5.79609
G1 X157.342 Y167.383 E5.8261
G1 X156.529 Y167.777 E5.85615
G1 X155.685 Y168.097 E5.88617
G1 X154.815 Y168.342 E5.91624
G1 X153.928 Y168.508 E5.94625
G1 X152.777 Y168.606 E5.98467
G1 X152.17 Y168.619 E6.00486
G1 X96.824 Y168.619 E7.84568
G1 X83.071 Y168.617 E8.30311
G1 X82.378 Y168.608 E8.32616
G1 X81.476 Y168.556 E8.35621
G1 X80.582 Y168.425 E8.38626
G1 X79.704 Y168.215 E8.41629
G1 X78.848 Y167.929 E8.4463
G1 X78.02 Y167.568 E8.47635
G1 X77.227 Y167.134 E8.50641
G1 X76.476 Y166.633 E8.53644
G1 X75.773 Y166.067 E8.56646
G1 X75.122 Y165.441 E8.5965
G1 X74.528 Y164.76 E8.62655
G1 X73.998 Y164.029 E8.65658
G1 X73.534 Y163.254 E8.68663
G1 X73.141 Y162.441 E8.71666
G1 X72.821 Y161.597 E8.74668
G1 X72.577 Y160.727 E8.77674
G1 X72.411 Y159.84 E8.80675
G1 X72.314 Y158.706 E8.8446
G1 X72.3 Y158.066 E8.8659
G1 X72.3 Y76.674 E11.573
G1 X72.301 Y76.521 E11.57809
G1 X72.311 Y75.856 E11.60021
G1 X72.365 Y74.954 E11.63027
G1 X72.498 Y74.061 E11.6603
G1 X72.709 Y73.183 E11.69033
G1 X72.998 Y72.327 E11.72038
G1 X73.361 Y71.5 E11.75042
G1 X73.795 Y70.709 E11.78043
G1 X74.298 Y69.958 E11.81049
G1 X74.866 Y69.256 E11.84053
G1 X75.493 Y68.606 E11.87056
G1 X76.175 Y68.014 E11.9006
G1 X76.907 Y67.485 E11.93064
G1 X77.683 Y67.023 E11.96068
G1 X78.497 Y66.632 E11.99071
G1 X79.342 Y66.313 E12.02075
G1 X80.212 Y66.071 E12.05079
G1 X81.1 Y65.907 E12.08082
G1 X82.223 Y65.813 E12.11831
G1 X82.83 Y65.8 E12.1385
G1 X86.939 Y65.801 E12.27516
G1 X87.637 Y65.811 E12.29838
G0 F6000 X87.643 Y65.411
G1 F1200 X88.562 Y65.464 E12.329
G1 X89.473 Y65.597 E12.35962
G1 X90.558 Y65.863 E12.39678
G1 X91.284 Y66.083 E12.42201
G1 X93.753 Y66.801 E12.50753
G1 X96.229 Y67.444 E12.59261
G1 X98.682 Y68.011 E12.67635
G1 X101.144 Y68.503 E12.75986
G1 X103.658 Y68.934 E12.84469
G1 X106.167 Y69.291 E12.92898
G1 X108.637 Y69.571 E13.01166
G1 X111.192 Y69.789 E13.09695
G1 X113.697 Y69.931 E13.1804
G1 X116.242 Y70.003 E13.26508
G1 X118.751 Y70.003 E13.34853
G1 X121.297 Y69.931 E13.43324
G1 X123.818 Y69.788 E13.51723
G1 X126.322 Y69.576 E13.60081
G1 X128.835 Y69.29 E13.68493
G1 X131.377 Y68.929 E13.77033
G1 X133.835 Y68.507 E13.85328
G1 X136.302 Y68.012 E13.93697
G1 X138.768 Y67.446 E14.02112
G1 X141.238 Y66.802 E14.10602
G1 X143.69 Y66.09 E14.19094
G1 X144.502 Y65.843 E14.21917
G1 X145.395 Y65.621 E14.24977
G1 X146.305 Y65.478 E14.28041
G1 X147.179 Y65.415 E14.30956
G1 X147.83 Y65.4 E14.33121
G1 X151.93 Y65.401 E14.46758
G1 X152.628 Y65.41 E14.4908
G1 X153.547 Y65.462 E14.52141
G1 X154.458 Y65.593 E14.55202
G1 X155.354 Y65.803 E14.58263
G1 X156.229 Y66.09 E14.61326
G1 X157.076 Y66.452 E14.6439
G1 X157.888 Y66.886 E14.67452
G1 X158.659 Y67.388 E14.70512
G1 X159.384 Y67.956 E14.73575
G1 X160.057 Y68.585 E14.76639
G1 X160.672 Y69.269 E14.79699
G1 X161.226 Y70.004 E14.8276
G1 X161.714 Y70.785 E14.85823
G1 X162.133 Y71.605 E14.88886
G1 X162.479 Y72.458 E14.91947
G1 X162.749 Y73.338 E14.95009
G1 X162.942 Y74.239 E14.98074
G1 X163.056 Y75.152 E15.01134
G1 X163.087 Y75.712 E15.02999
G1 X163.1 Y76.33 E15.05055
G1 X163.1 Y157.683 E17.75636
G1 X163.09 Y158.541 E17.7849
G1 X163.039 Y159.46 E17.81551
G1 X162.908 Y160.372 E17.84616
G1 X162.698 Y161.268 E17.87677
G1 X162.412 Y162.143 E17.90739
G1 X162.051 Y162.99 E17.93801
G1 X161.617 Y163.802 E17.96863
G1 X161.115 Y164.574 E17.99926
G1 X160.547 Y165.299 E18.02989
G1 X159.919 Y165.972 E18.06051
G1 X159.235 Y166.588 E18.09112
G1 X158.5 Y167.142 E18.12174
G1 X157.72 Y167.631 E18.15236
G1 X156.9 Y168.05 E18.18298
G1 X156.047 Y168.396 E18.2136
G1 X155.167 Y168.667 E18.24423
G1 X154.267 Y168.86 E18.27484
G1 X153.353 Y168.975 E18.30548
G1 X152.788 Y169.006 E18.3243
G1 X152.17 Y169.019 E18.34486
G1 X96.824 Y169.019 E20.18567
G1 X83.065 Y169.017 E20.6433
G1 X82.372 Y169.008 E20.66635
G1 X81.453 Y168.956 E20.69697
G1 X80.542 Y168.825 E20.72758
G1 X79.646 Y168.615 E20.75819
G1 X78.771 Y168.328 E20.78882
G1 X77.924 Y167.966 E20.81945
G1 X77.112 Y167.532 E20.85007
G1 X76.341 Y167.029 E20.88069
G1 X75.616 Y166.461 E20.91133
G1 X74.944 Y165.833 E20.94192
G1 X74.328 Y165.148 E20.97256
G1 X73.774 Y164.413 E21.00317
G1 X73.286 Y163.632 E21.0338
G1 X72.868 Y162.812 E21.06441
G1 X72.522 Y161.959 E21.09503
G1 X72.252 Y161.079 E21.12564
G1 X72.059 Y160.178 E21.15629
G1 X71.945 Y159.265 E21.18689
G1 X71.915 Y158.718 E21.20511
G1 X71.9 Y158.066 E21.22681
G1 X71.9 Y76.674 E23.93392
G1 X71.901 Y76.515 E23.9392
G1 X71.911 Y75.85 E23.96132
G1 X71.965 Y74.931 E23.99194
G1 X72.098 Y74.02 E24.02256
G1 X72.31 Y73.124 E24.05319
G1 X72.599 Y72.249 E24.08384
G1 X72.963 Y71.404 E24.11444
G1 X73.398 Y70.593 E24.14505
G1 X73.903 Y69.822 E24.1757
G1 X74.472 Y69.099 E24.2063
G1 X75.102 Y68.427 E24.23694
G1 X75.788 Y67.813 E24.26756
G1 X76.524 Y67.261 E24.29816
G1 X77.306 Y66.774 E24.3288
G1 X78.127 Y66.358 E24.35941
G1 X78.981 Y66.014 E24.39003
G1 X79.861 Y65.745 E24.42064
G1 X80.762 Y65.554 E24.45127
G1 X81.676 Y65.442 E24.4819
G1 X82.212 Y65.413 E24.49975
G1 X82.83 Y65.4 E24.52031
G1 X86.945 Y65.401 E24.65718
G1 X87.643 Y65.411 E24.6804
G0 F6000 X87.649 Y65.011
G1 F1200 X88.585 Y65.065 E24.71158
G1 X89.513 Y65.197 E24.74276
G1 X90.674 Y65.481 E24.78251
G1 X91.353 Y65.686 E24.8061
G1 X93.86 Y66.415 E24.89294
G1 X96.305 Y67.051 E24.97696
G1 X98.784 Y67.624 E25.06159
G1 X101.218 Y68.11 E25.14414
G1 X103.71 Y68.537 E25.22824
G1 X106.197 Y68.891 E25.31179
G1 X108.718 Y69.178 E25.39618
G1 X111.211 Y69.39 E25.4794
G1 X113.695 Y69.531 E25.56215
G1 X116.253 Y69.603 E25.64726
G1 X118.74 Y69.603 E25.72998
G1 X121.299 Y69.531 E25.81512
G1 X123.76 Y69.391 E25.89711
G1 X126.314 Y69.175 E25.98236
G1 X128.77 Y68.895 E26.06457
G1 X131.285 Y68.538 E26.14906
G1 X133.795 Y68.107 E26.23377
G1 X136.213 Y67.622 E26.31579
G1 X138.675 Y67.057 E26.39981
G1 X141.131 Y66.417 E26.48422
G1 X143.562 Y65.711 E26.56842
G1 X144.388 Y65.459 E26.59714
G1 X145.298 Y65.233 E26.62833
G1 X146.225 Y65.084 E26.65956
G1 X147.167 Y65.015 E26.69097
G1 X147.497 Y65.005 E26.70195
G1 X147.83 Y65 E26.71303
G1 X151.935 Y65.001 E26.84956
G1 X152.633 Y65.01 E26.87278
G1 X153.569 Y65.062 E26.90396
G1 X154.498 Y65.194 E26.93517
G1 X155.412 Y65.404 E26.96636
G1 X156.305 Y65.691 E26.99756
G1 X157.17 Y66.054 E27.02876
G1 X158.001 Y66.488 E27.05994
G1 X158.792 Y66.992 E27.09113
G1 X159.537 Y67.562 E27.12233
G1 X160.231 Y68.193 E27.15353
G1 X160.868 Y68.88 E27.18469
G1 X161.445 Y69.62 E27.2159
G1 X161.957 Y70.406 E27.2471
G1 X162.4 Y71.233 E27.2783
G1 X162.771 Y72.094 E27.30949
G1 X163.067 Y72.984 E27.34068
G1 X163.286 Y73.896 E27.37188
G1 X163.427 Y74.823 E27.40307
G1 X163.487 Y75.701 E27.43234
G1 X163.5 Y76.33 E27.45326
G1 X163.5 Y157.683 E30.15907
G1 X163.49 Y158.546 E30.18778
G1 X163.439 Y159.483 E30.21899
G1 X163.307 Y160.411 E30.25017
G1 X163.098 Y161.325 E30.28135
G1 X162.811 Y162.218 E30.31255
G1 X162.449 Y163.084 E30.34377
G1 X162.015 Y163.915 E30.37495
G1 X161.511 Y164.706 E30.40614
G1 X160.942 Y165.451 E30.43732
G1 X160.311 Y166.146 E30.46854
G1 X159.624 Y166.784 E30.49973
G1 X158.885 Y167.361 E30.53091
G1 X158.099 Y167.873 E30.56211
G1 X157.273 Y168.316 E30.59329
G1 X156.411 Y168.688 E30.62451
G1 X155.522 Y168.984 E30.65568
G1 X154.61 Y169.204 E30.68688
G1 X153.683 Y169.345 E30.71807
G1 X152.799 Y169.406 E30.74754
G1 X152.17 Y169.419 E30.76846
G1 X96.824 Y169.419 E32.60928
G1 X83.06 Y169.417 E33.06707
G1 X82.367 Y169.408 E33.09012
G1 X81.431 Y169.356 E33.1213
G1 X80.502 Y169.224 E33.15251
G1 X79.588 Y169.014 E33.1837
G1 X78.695 Y168.726 E33.21491
G1 X77.83 Y168.364 E33.2461
G1 X76.999 Y167.929 E33.27729
G1 X76.209 Y167.425 E33.30846
G1 X75.463 Y166.856 E33.33967
G1 X74.769 Y166.225 E33.37086
G1 X74.132 Y165.537 E33.40205
G1 X73.555 Y164.797 E33.43326
G1 X73.044 Y164.011 E33.46444
G1 X72.601 Y163.185 E33.49562
G1 X72.23 Y162.323 E33.52683
G1 X71.934 Y161.433 E33.55802
G1 X71.715 Y160.521 E33.58922
G1 X71.574 Y159.594 E33.62041
G1 X71.515 Y158.73 E33.64921
G1 X71.5 Y158.066 E33.6713
G1 X71.5 Y76.674 E36.37841
G1 X71.501 Y76.509 E36.3839
G1 X71.511 Y75.844 E36.40602
G1 X71.565 Y74.907 E36.43723
G1 X71.699 Y73.979 E36.46842
G1 X71.911 Y73.065 E36.49963
G1 X72.2 Y72.173 E36.53081
G1 X72.565 Y71.309 E36.56201
G1 X73.001 Y70.479 E36.59319
G1 X73.507 Y69.689 E36.6244
G1 X74.078 Y68.945 E36.65559
G1 X74.71 Y68.252 E36.68678
G1 X75.399 Y67.616 E36.71797
G1 X76.14 Y67.041 E36.74917
G1 X76.927 Y66.531 E36.78036
G1 X77.755 Y66.09 E36.81156
G1 X78.617 Y65.721 E36.84275
G1 X79.508 Y65.427 E36.87395
G1 X80.42 Y65.209 E36.90514
G1 X81.347 Y65.071 E36.93631
G1 X82.201 Y65.013 E36.96478
G1 X82.83 Y65 E36.98571
G1 X86.951 Y65.001 E37.12277
G1 X87.649 Y65.011 E37.14599
G1 F1500 E30.64599
;MESH:Phone Stand.stl
G0 F6000 X88.161 Y75.843
G0 X88.153 Y85.347
G0 X87.649 Y86.42
G0 X86.718 Y86.782
G0 X86.718 Y76.782
G0 X83.282 Y76.782
G0 X83.282 Y157.636
G0 X96.824 Y157.819
;TYPE:WALL-INNER
G1 F1500 E37.14599
G1 F1200 X83.1 Y157.818 E37.60245
G1 X83.1 Y76.6 E40.30377
G1 X86.9 Y76.6 E40.43016
G1 X86.9 Y86.6 E40.76276
G1 X148.1 Y86.6 E42.79828
G1 X148.1 Y76.6 E43.13089
G1 X151.9 Y76.6 E43.25727
G1 X151.9 Y157.819 E45.95863
G1 X96.824 Y157.819 E47.79046
G0 F6000 X96.824 Y158.219
;TYPE:WALL-OUTER
G1 F1200 X82.7 Y158.218 E48.26023
G1 X82.7 Y76.2 E50.98816
G1 X87.3 Y76.2 E51.14116
G1 X87.3 Y86.2 E51.47376
G1 X147.7 Y86.2 E53.48267
G1 X147.7 Y76.2 E53.81527
G1 X152.3 Y76.2 E53.96827
G1 X152.3 Y158.219 E56.69623
G1 X96.824 Y158.219 E58.54137
G0 F6000 X96.824 Y157.779
G0 X96.824 Y157.429
;TYPE:SKIN
G1 F1200 X83.49 Y157.428 E58.98486
G1 X83.49 Y76.99 E61.66024
G1 X86.51 Y76.99 E61.76068
G1 X86.51 Y86.99 E62.09329
G1 X148.49 Y86.99 E64.15475
G1 X148.49 Y76.99 E64.48735
G1 X151.51 Y76.99 E64.5878
G1 X151.51 Y157.429 E67.26321
G1 X96.824 Y157.429 E69.08207
G0 F6000 X96.823 Y157.708
G0 X83.726 Y157.708
G0 X83.727 Y157.266
G1 F1200 X83.649 Y157.188 E69.08574
G0 F6000 X83.649 Y156.622
G1 F1200 X84.293 Y157.266 E69.11603
G0 F6000 X84.859 Y157.266
G1 F1200 X83.649 Y156.057 E69.17292
G0 F6000 X83.649 Y155.491
G1 F1200 X85.424 Y157.266 E69.25641
G0 F6000 X85.99 Y157.266
G1 F1200 X83.649 Y154.925 E69.36653
G0 F6000 X83.649 Y154.359
G1 F1200 X86.556 Y157.266 E69.50326
G0 F6000 X87.121 Y157.266
G1 F1200 X83.649 Y153.794 E69.66658
G0 F6000 X83.649 Y153.228
G1 F1200 X87.687 Y157.266 E69.85651
G0 F6000 X88.253 Y157.266
G1 F1200 X83.649 Y152.662 E70.07307
G0 F6000 X83.649 Y152.097
G1 F1200 X88.818 Y157.266 E70.3162
G0 F6000 X89.384 Y157.266
G1 F1200 X83.649 Y151.531 E70.58596
G0 F6000 X83.649 Y150.965
G1 F1200 X89.95 Y157.266 E70.88234
G0 F6000 X90.516 Y157.267
G1 F1200 X83.649 Y150.4 E71.20534
G0 F6000 X83.649 Y149.834
G1 F1200 X91.082 Y157.267 E71.55497
G0 F6000 X91.648 Y157.267
G1 F1200 X83.649 Y149.268 E71.93122
G0 F6000 X83.649 Y148.703
G1 F1200 X92.213 Y157.267 E72.33404
G0 F6000 X92.779 Y157.267
G1 F1200 X83.649 Y148.137 E72.76349
G0 F6000 X83.649 Y147.571
G1 F1200 X93.345 Y157.267 E73.21956
G0 F6000 X93.91 Y157.267
G1 F1200 X83.649 Y147.006 E73.7022
G0 F6000 X83.649 Y146.44
G1 F1200 X94.476 Y157.267 E74.21147
G0 F6000 X95.042 Y157.267
G1 F1200 X83.649 Y145.874 E74.74737
G0 F6000 X83.649 Y145.309
G1 F1200 X95.607 Y157.267 E75.30983
G0 F6000 X96.173 Y157.267
G1 F1200 X83.649 Y144.743 E75.89892
G0 F6000 X83.649 Y144.177
G1 F1200 X96.739 Y157.267 E76.51464
G0 F6000 X97.305 Y157.268
G1 F1200 X83.649 Y143.611 E77.157
G0 F6000 X83.649 Y143.046
G1 F1200 X97.871 Y157.268 E77.82596
G0 F6000 X98.437 Y157.268
G1 F1200 X83.649 Y142.48 E78.52154
G0 F6000 X83.649 Y141.914
G1 F1200 X99.002 Y157.268 E79.24372
G0 F6000 X99.568 Y157.268
G1 F1200 X83.649 Y141.349 E79.9925
G0 F6000 X83.649 Y140.783
G1 F1200 X100.134 Y157.268 E80.7679
G0 F6000 X100.699 Y157.268
G1 F1200 X83.649 Y140.217 E81.56991
G0 F6000 X83.649 Y139.652
G1 F1200 X101.265 Y157.268 E82.39851
G0 F6000 X101.831 Y157.268
G1 F1200 X83.649 Y139.086 E83.25374
G0 F6000 X83.649 Y138.52
G1 F1200 X102.396 Y157.268 E84.13556
G0 F6000 X102.962 Y157.268
G1 F1200 X83.649 Y137.955 E85.04399
G0 F6000 X83.649 Y137.389
G1 F1200 X103.528 Y157.268 E85.97903
G0 F6000 X104.093 Y157.268
G1 F1200 X83.649 Y136.823 E86.94068
G0 F6000 X83.649 Y136.258
G1 F1200 X104.659 Y157.268 E87.92893
G0 F6000 X105.225 Y157.268
G1 F1200 X83.649 Y135.692 E88.94379
G0 F6000 X83.649 Y135.126
G1 F1200 X105.79 Y157.268 E89.98526
G0 F6000 X106.356 Y157.268
G1 F1200 X83.649 Y134.561 E91.05333
G0 F6000 X83.649 Y133.995
G1 F1200 X106.922 Y157.268 E92.14802
G0 F6000 X107.488 Y157.268
G1 F1200 X83.649 Y133.429 E93.26933
G0 F6000 X83.649 Y132.863
G1 F1200 X108.053 Y157.268 E94.41725
G0 F6000 X108.619 Y157.268
G1 F1200 X83.649 Y132.298 E95.59176
G0 F6000 X83.649 Y131.732
G1 F1200 X109.185 Y157.268 E96.79289
G0 F6000 X109.75 Y157.268
G1 F1200 X83.649 Y131.166 E98.02063
G0 F6000 X83.649 Y130.601
G1 F1200 X110.316 Y157.268 E99.27496
G0 F6000 X110.882 Y157.268
G1 F1200 X83.649 Y130.035 E100.55592
G0 F6000 X83.649 Y129.469
G1 F1200 X111.447 Y157.268 E101.86348
G0 F6000 X112.013 Y157.268
G1 F1200 X83.649 Y128.904 E103.19763
G0 F6000 X83.649 Y128.338
G1 F1200 X112.579 Y157.268 E104.55841
G0 F6000 X113.144 Y157.268
G1 F1200 X83.649 Y127.772 E105.94579
G0 F6000 X83.649 Y127.207
G1 F1200 X113.71 Y157.268 E107.35976
G0 F6000 X114.276 Y157.268
G1 F1200 X83.649 Y126.641 E108.80037
G0 F6000 X83.649 Y126.075
G1 F1200 X114.841 Y157.268 E110.26756
G0 F6000 X115.407 Y157.268
G1 F1200 X83.649 Y125.51 E111.76136
G0 F6000 X83.649 Y124.944
G1 F1200 X115.973 Y157.268 E113.28179
G0 F6000 X116.538 Y157.268
G1 F1200 X83.649 Y124.378 E114.82881
